icons/calm.svg

<svg width="48" height="48" viewBox="0 0 48 48" fill="none" xmlns="http://www.w3.org/2000/svg">
<path fill-rule="evenodd" clip-rule="evenodd" d="M30.3684 33.494C30.572 33.2447 30.7335 32.9263 30.8397 32.6162C30.9454 32.3077 31.0289 31.913 30.9905 31.5094C30.9508 31.0927 30.7608 30.5534 30.2113 30.2322C29.7031 29.9351 29.1149 29.9636 28.5945 30.0941L28.5811 30.0977C26.1852 30.7337 25.0121 30.9969 23.8768 30.9918C22.7388 30.9867 21.5915 30.7127 19.2383 30.0992C18.7837 29.9714 18.2429 29.9403 17.7618 30.2295C17.2647 30.5282 17.0803 31.0172 17.0244 31.3835C16.9688 31.7483 17.0156 32.1111 17.0909 32.4047C17.1668 32.7004 17.292 33.0058 17.4623 33.2592C17.5785 33.4323 17.7509 33.6112 17.8133 33.6759C17.8232 33.6862 17.8303 33.6936 17.834 33.6976C19.1575 35.146 21.4962 36 24.0132 36C26.6364 36 29.0811 35.0703 30.3684 33.494ZM23.8678 32.9918C25.2736 32.9981 26.6653 32.6733 28.9027 32.0815C28.8928 32.1031 28.8828 32.1236 28.8727 32.1426C28.8452 32.1946 28.8248 32.2223 28.8193 32.2289C28.0331 33.1916 26.2582 34 24.0132 34C21.8715 34 20.1453 33.2622 19.3105 32.3485C19.2799 32.315 19.2497 32.2832 19.2264 32.2587L19.2243 32.2565C19.1985 32.2293 19.1804 32.2102 19.1636 32.1919C19.1321 32.1575 19.1229 32.1447 19.1224 32.1439L19.12 32.1402L19.1162 32.134C21.1823 32.6703 22.5107 32.9857 23.8678 32.9918Z" fill="black"/>
<path d="M13.7427 24.3501C13.6236 25.0878 14.1241 25.7953 14.8071 26.2328C15.5209 26.6899 16.5385 26.9399 17.7369 26.763C18.9828 26.579 19.8683 25.8878 20.3903 25.0976C20.8947 24.3341 21.1023 23.4046 20.8706 22.7158C20.8161 22.554 20.6829 22.4312 20.5172 22.39C20.3515 22.3488 20.1763 22.3951 20.0524 22.5126C18.2566 24.2174 16.2286 24.6362 14.4103 23.9611C14.27 23.909 14.1138 23.9225 13.9845 23.9978C13.8553 24.0731 13.7665 24.2024 13.7427 24.3501Z" fill="black"/>
<path d="M33.8185 24.3501C33.9376 25.0878 33.4371 25.7953 32.7541 26.2328C32.0403 26.6899 31.0227 26.9399 29.8243 26.763C28.5784 26.579 27.6929 25.8878 27.1708 25.0976C26.6665 24.3341 26.4589 23.4046 26.6906 22.7158C26.745 22.554 26.8783 22.4312 27.044 22.39C27.2097 22.3488 27.3849 22.3951 27.5087 22.5126C29.3046 24.2174 31.3326 24.6362 33.1509 23.9611C33.2911 23.909 33.4474 23.9225 33.5766 23.9978C33.7059 24.0731 33.7947 24.2024 33.8185 24.3501Z" fill="black"/>
<path fill-rule="evenodd" clip-rule="evenodd" d="M42 24C42 33.9411 33.9411 42 24 42C14.0589 42 6 33.9411 6 24C6 14.0589 14.0589 6 24 6C33.9411 6 42 14.0589 42 24ZM40 24C40 32.8366 32.8366 40 24 40C15.1634 40 8 32.8366 8 24C8 15.1634 15.1634 8 24 8C32.8366 8 40 15.1634 40 24Z" fill="black"/>
</svg>

<svg
  xmlns="http://www.w3.org/2000/svg"
  width="24"
  height="24"
  viewBox="0 0 24 24"
  fill="none"
  stroke="currentColor"
  stroke-width="2"
  stroke-linecap="round"
  stroke-linejoin="round"
>
  <path
    fill-rule="evenodd"
    d="M30.368 33.494a2.9 2.9 0 0 0 .472-.878c.105-.308.189-.703.15-1.107-.04-.416-.23-.956-.779-1.277-.508-.297-1.096-.268-1.616-.138l-.014.004c-2.396.636-3.569.899-4.704.894-1.138-.005-2.285-.28-4.639-.893-.454-.128-.995-.159-1.476.13-.497.3-.682.788-.738 1.155-.055.364-.008.727.067 1.02.076.296.201.602.371.855a3.4 3.4 0 0 0 .372.439C19.157 35.146 21.496 36 24.014 36c2.622 0 5.067-.93 6.354-2.506m-6.5-.502c1.406.006 2.797-.319 5.035-.91l-.03.06a1 1 0 0 1-.054.087c-.786.963-2.56 1.771-4.806 1.771-2.142 0-3.868-.738-4.703-1.651l-.084-.09-.002-.002-.102-.113-.002-.004-.004-.006c2.066.536 3.395.852 4.752.858"
    clip-rule="evenodd"
  />
  <path d="M13.743 24.35c-.12.738.381 1.445 1.064 1.883.714.457 1.731.707 2.93.53a3.8 3.8 0 0 0 2.653-1.665c.505-.764.712-1.693.48-2.382a.5.5 0 0 0-.818-.203c-1.795 1.704-3.823 2.123-5.642 1.448a.5.5 0 0 0-.667.39" />
  <path d="M33.819 24.35c.119.738-.382 1.445-1.065 1.883-.714.457-1.731.707-2.93.53a3.8 3.8 0 0 1-2.653-1.665c-.505-.764-.712-1.693-.48-2.382a.5.5 0 0 1 .818-.203c1.796 1.704 3.824 2.123 5.642 1.448a.5.5 0 0 1 .667.39" />
  <path
    fill-rule="evenodd"
    d="M42 24c0 9.941-8.059 18-18 18S6 33.941 6 24 14.059 6 24 6s18 8.059 18 18m-2 0c0 8.837-7.163 16-16 16S8 32.837 8 24 15.163 8 24 8s16 7.163 16 16"
    clip-rule="evenodd"
  />
</svg>
